assets/svg/action_wallet_confirmemail.svg

<svg width="80" height="80" viewBox="0 0 80 80" fill="none" xmlns="http://www.w3.org/2000/svg">
<path d="M51.1984 60.907V70.5211C51.1984 72.8648 49.2984 74.7648 46.9547 74.7648H28.1953C26.6859 74.7648 25.4609 75.9898 25.4609 77.4992H46.9547C50.8094 77.4992 53.9328 74.3742 53.9328 70.5211V60.907H51.1984ZM41.5656 34.0039L35.7047 37.7883C35.666 37.8133 35.6341 37.8473 35.6115 37.8874C35.589 37.9276 35.5766 37.9726 35.5753 38.0186C35.5741 38.0646 35.5841 38.1102 35.6045 38.1515C35.6248 38.1928 35.6549 38.2284 35.6922 38.2555L41.5656 42.4992V34.0039ZM66.3016 34.0039L72.1641 37.7883C72.3313 37.8961 72.3375 38.1383 72.1766 38.2555L66.3016 42.4992V34.0039Z" fill="#E1EAF8"/>
<path d="M64.9773 22.8789H42.8914C42.1602 22.8789 41.5664 23.4727 41.5664 24.2039V42.4992L52.8414 50.4633C53.4961 50.9258 54.3711 50.9258 55.0258 50.4633L66.3023 42.5008V24.2039C66.3023 23.4727 65.7086 22.8789 64.9773 22.8789ZM48.1289 27.8633H59.7383C60.0398 27.8633 60.2852 28.1086 60.2852 28.4102C60.2852 28.7117 60.0398 28.957 59.7383 28.957H48.1289C47.8273 28.957 47.582 28.7117 47.582 28.4102C47.582 28.1086 47.8273 27.8633 48.1289 27.8633ZM59.7398 40.5477H48.1305C47.8289 40.5477 47.5836 40.3023 47.5836 40.0008C47.5836 39.6992 47.8289 39.4539 48.1305 39.4539H59.7398C60.0414 39.4539 60.2867 39.6992 60.2867 40.0008C60.2867 40.3023 60.0414 40.5477 59.7398 40.5477ZM61.1805 34.7523H46.6883C46.3867 34.7523 46.1414 34.507 46.1414 34.2055C46.1414 33.9039 46.3867 33.6586 46.6883 33.6586H61.1805C61.482 33.6586 61.7273 33.9039 61.7273 34.2055C61.7273 34.507 61.482 34.7523 61.1805 34.7523Z" fill="#0166FF"/>
<path d="M40.9438 8.05313H29.4609C28.5203 8.05313 27.6844 7.45156 27.3859 6.55781L26.0312 2.5H44.3719L43.0187 6.55781C42.8732 6.99307 42.5946 7.37159 42.2223 7.63991C41.8499 7.90823 41.4027 8.05277 40.9438 8.05313Z" fill="#E1EAF8"/>
<path d="M72.4062 37.2407L69.2547 35.2673C69.1939 35.2291 69.1262 35.2032 69.0553 35.1912C68.9845 35.1793 68.9121 35.1814 68.8421 35.1975C68.7721 35.2136 68.706 35.2434 68.6476 35.2851C68.5891 35.3269 68.5395 35.3798 68.5016 35.4407C68.4633 35.5015 68.4375 35.5693 68.4255 35.6401C68.4135 35.7109 68.4157 35.7834 68.4318 35.8533C68.4479 35.9233 68.4777 35.9894 68.5194 36.0479C68.5612 36.1063 68.614 36.1559 68.675 36.1939L71.8266 38.1673C71.9273 38.2301 72.0103 38.3176 72.0678 38.4215C72.1252 38.5255 72.1551 38.6423 72.1547 38.761V59.6595C72.1547 59.7501 72.1359 59.8345 72.1047 59.9142L59.1609 48.186L70.4109 40.2407C70.6578 40.0673 70.7172 39.7251 70.5422 39.4782C70.3672 39.2314 70.0266 39.172 69.7797 39.347L54.6453 50.036C54.4367 50.1828 54.1879 50.2616 53.9328 50.2616C53.6777 50.2616 53.4289 50.1828 53.2203 50.036L36.2391 38.0439L39.1922 36.1939C39.3149 36.1169 39.4021 35.9943 39.4346 35.8531C39.4671 35.712 39.4423 35.5637 39.3656 35.4407C39.2886 35.318 39.1661 35.2308 39.0249 35.1983C38.8837 35.1658 38.7354 35.1906 38.6125 35.2673L35.4609 37.2407C35.2026 37.4014 34.9897 37.6254 34.8423 37.8915C34.6949 38.1575 34.6179 38.4569 34.6187 38.761V59.6595C34.6187 60.6485 35.4234 61.4532 36.4125 61.4532H53.3859V70.5204C53.3859 74.0673 50.5 76.9517 46.9547 76.9517H23.4469C19.9 76.9517 17.0156 74.0657 17.0156 70.5204V61.7892C17.0156 61.4876 16.7703 61.2423 16.4688 61.2423C16.1672 61.2423 15.9219 61.4876 15.9219 61.7892V70.5204C15.9219 74.6704 19.2984 78.0454 23.4469 78.0454H46.9547C51.1047 78.0454 54.4797 74.6689 54.4797 70.5204V61.4532H71.4531C72.4422 61.4532 73.2469 60.6485 73.2469 59.6595V38.7626C73.2484 38.1407 72.9328 37.572 72.4062 37.2407ZM53.9344 51.3564C54.4047 51.3564 54.8766 51.2142 55.2781 50.9314L58.2469 48.8345L70.9688 60.361H36.9L49.6219 48.8345L52.5906 50.9314C52.9922 51.2142 53.4625 51.3564 53.9344 51.3564ZM35.7125 59.6595V39.0095L48.7063 48.186L35.7625 59.9142C35.7313 59.836 35.7125 59.7501 35.7125 59.6595Z" fill="#9A9A9A"/>
<path d="M16.4688 58.0844C16.7703 58.0844 17.0156 57.8391 17.0156 57.5375V9.47813C17.0156 5.93125 19.9016 3.04688 23.4469 3.04688H46.9547C50.5016 3.04688 53.3859 5.93281 53.3859 9.47813V19.7938C53.3859 20.0953 53.6313 20.3406 53.9328 20.3406C54.2344 20.3406 54.4797 20.0953 54.4797 19.7938V9.47813C54.4797 5.32812 51.1031 1.95312 46.9547 1.95312H23.4469C19.2969 1.95312 15.9219 5.32969 15.9219 9.47813V57.5375C15.9219 57.8391 16.1672 58.0844 16.4688 58.0844Z" fill="#9A9A9A"/>
<path d="M11.3755 34.2037C11.2865 34.2037 11.1943 34.1818 11.1115 34.1349L7.5521 32.163C7.42538 32.0925 7.33174 31.9747 7.29163 31.8353C7.25151 31.696 7.2682 31.5464 7.33804 31.4193C7.48491 31.1552 7.81773 31.0599 8.08179 31.2052L11.6412 33.1771C11.9052 33.324 12.0005 33.6568 11.8552 33.9209C11.8079 34.0066 11.7384 34.0781 11.654 34.1278C11.5697 34.1776 11.4735 34.2038 11.3755 34.2037ZM7.29898 48.2068C7.08804 48.2068 6.88648 48.0834 6.79741 47.8771C6.6771 47.6005 6.80366 47.2787 7.08179 47.1584L10.813 45.538C11.0896 45.4177 11.4115 45.5443 11.5318 45.8224C11.6521 46.099 11.5255 46.4209 11.2474 46.5412L7.51616 48.1615C7.44585 48.1927 7.37241 48.2068 7.29898 48.2068ZM69.7615 24.0677C69.6177 24.0677 69.474 24.0115 69.3662 23.899C69.3164 23.8471 69.2774 23.786 69.2513 23.719C69.2252 23.652 69.2126 23.5806 69.2142 23.5087C69.2158 23.4368 69.2315 23.366 69.2606 23.3003C69.2896 23.2345 69.3313 23.1751 69.3834 23.1255L72.324 20.313C72.5427 20.1052 72.888 20.1115 73.0974 20.3302C73.3068 20.549 73.299 20.8943 73.0802 21.1037L70.1396 23.9146C70.0334 24.0177 69.8959 24.0677 69.7615 24.0677ZM58.0396 20.0552C57.7646 20.0552 57.5271 19.8474 57.4959 19.5677L57.0584 15.5224C57.0255 15.2224 57.2427 14.9521 57.5427 14.9193C57.8427 14.8865 58.113 15.1037 58.1459 15.4037L58.5834 19.449C58.599 19.5932 58.5568 19.7377 58.466 19.8508C58.3751 19.9639 58.2431 20.0363 58.099 20.0521C58.0802 20.0552 58.0599 20.0552 58.0396 20.0552Z" fill="#0166FF"/>
</svg>

<svg xmlns="http://www.w3.org/2000/svg" width="80" height="80" fill="none"><path fill="#E1EAF8" d="M51.198 60.907v9.614c0 2.344-1.9 4.244-4.243 4.244h-18.76a2.735 2.735 0 0 0-2.734 2.734h21.494a6.98 6.98 0 0 0 6.978-6.978v-9.614zm-9.632-26.903-5.861 3.784a.284.284 0 0 0-.013.468l5.874 4.243zm24.736 0 5.862 3.784c.167.108.174.35.013.468l-5.875 4.243z"/><path fill="#0166FF" d="M64.977 22.879H42.891c-.73 0-1.325.594-1.325 1.325v18.295l11.275 7.964c.655.463 1.53.463 2.185 0l11.276-7.962V24.204c0-.731-.593-1.325-1.325-1.325M48.13 27.863h11.61a.548.548 0 0 1 0 1.094h-11.61a.547.547 0 0 1 0-1.094m11.61 12.685H48.132a.548.548 0 0 1 0-1.094H59.74a.547.547 0 0 1 0 1.094m1.442-5.796H46.688a.547.547 0 0 1 0-1.093h14.493a.547.547 0 0 1 0 1.093"/><path fill="#E1EAF8" d="M40.944 8.053H29.46c-.94 0-1.777-.601-2.075-1.495L26.03 2.5h18.34L43.02 6.558a2.19 2.19 0 0 1-2.075 1.495"/><path fill="#9A9A9A" d="m72.406 37.24-3.151-1.973a.546.546 0 1 0-.58.927l3.152 1.973a.7.7 0 0 1 .328.594V59.66c0 .09-.02.175-.05.254L59.16 48.186l11.25-7.945a.546.546 0 1 0-.631-.894L54.645 50.036a1.24 1.24 0 0 1-1.425 0L36.24 38.044l2.952-1.85a.547.547 0 0 0-.58-.927l-3.151 1.974a1.79 1.79 0 0 0-.842 1.52V59.66c0 .989.804 1.793 1.794 1.793h16.973v9.067a6.44 6.44 0 0 1-6.431 6.432H23.447a6.44 6.44 0 0 1-6.431-6.432v-8.73a.547.547 0 0 0-1.094 0v8.73c0 4.15 3.376 7.525 7.525 7.525h23.508c4.15 0 7.525-3.376 7.525-7.525v-9.067h16.973c.99 0 1.794-.805 1.794-1.794V38.764a1.79 1.79 0 0 0-.84-1.522M53.934 51.357c.47 0 .943-.142 1.344-.425l2.969-2.096L70.969 60.36H36.9l12.722-11.526 2.969 2.096c.401.283.871.425 1.343.425M35.713 59.66V39.01l12.993 9.176-12.943 11.728a.7.7 0 0 1-.05-.255"/><path fill="#9A9A9A" d="M16.469 58.084a.547.547 0 0 0 .547-.547V9.479a6.44 6.44 0 0 1 6.43-6.431h23.509a6.44 6.44 0 0 1 6.43 6.431v10.316a.548.548 0 0 0 1.095 0V9.478c0-4.15-3.377-7.525-7.525-7.525H23.447c-4.15 0-7.525 3.377-7.525 7.525v48.06c0 .301.245.546.547.546"/><path fill="#0166FF" d="M11.376 34.204a.54.54 0 0 1-.264-.07l-3.56-1.971a.55.55 0 0 1-.214-.744.55.55 0 0 1 .744-.214l3.56 1.972a.549.549 0 0 1-.266 1.027M7.299 48.207a.547.547 0 0 1-.217-1.049l3.731-1.62a.546.546 0 1 1 .434 1.003l-3.73 1.62a.5.5 0 0 1-.218.046m62.463-24.14a.545.545 0 0 1-.379-.942l2.941-2.812a.548.548 0 0 1 .756.79l-2.94 2.812a.54.54 0 0 1-.379.153M58.04 20.056a.55.55 0 0 1-.544-.487l-.438-4.046a.547.547 0 0 1 1.088-.118l.437 4.045a.55.55 0 0 1-.484.603q-.03.004-.06.003"/></svg>
